public/icons/social/instagram.svg

<svg width="15" height="15" viewBox="0 0 15 15" fill="none" xmlns="http://www.w3.org/2000/svg">
<path d="M7.8289 4.28752C9.79052 4.28752 11.4096 5.90664 11.4096 7.86826C11.4096 9.86101 9.79052 11.449 7.8289 11.449C5.83614 11.449 4.24816 9.86101 4.24816 7.86826C4.24816 5.90664 5.83614 4.28752 7.8289 4.28752ZM7.8289 10.2035C9.10551 10.2035 10.133 9.176 10.133 7.86826C10.133 6.59165 9.10551 5.56413 7.8289 5.56413C6.52115 5.56413 5.49364 6.59165 5.49364 7.86826C5.49364 9.176 6.55229 10.2035 7.8289 10.2035ZM12.3749 4.16298C12.3749 3.69592 12.0012 3.32228 11.5342 3.32228C11.0671 3.32228 10.6935 3.69592 10.6935 4.16298C10.6935 4.63003 11.0671 5.00367 11.5342 5.00367C12.0012 5.00367 12.3749 4.63003 12.3749 4.16298ZM14.7413 5.00367C14.8035 6.15573 14.8035 9.61192 14.7413 10.764C14.679 11.8849 14.4299 12.8501 13.6203 13.6908C12.8108 14.5004 11.8144 14.7495 10.6935 14.8118C9.54142 14.874 6.08524 14.874 4.93317 14.8118C3.81225 14.7495 2.84701 14.5004 2.00631 13.6908C1.19676 12.8501 0.947663 11.8849 0.885389 10.764C0.823116 9.61192 0.823116 6.15573 0.885389 5.00367C0.947663 3.88274 1.19676 2.88637 2.00631 2.07681C2.84701 1.26725 3.81225 1.01816 4.93317 0.955885C6.08524 0.893611 9.54142 0.893611 10.6935 0.955885C11.8144 1.01816 12.8108 1.26725 13.6203 2.07681C14.4299 2.88637 14.679 3.88274 14.7413 5.00367ZM13.2467 11.9783C13.6203 11.0753 13.5269 8.89577 13.5269 7.86826C13.5269 6.87188 13.6203 4.6923 13.2467 3.7582C12.9976 3.1666 12.5306 2.66841 11.939 2.45045C11.0049 2.07681 8.82528 2.17022 7.8289 2.17022C6.80138 2.17022 4.62181 2.07681 3.71884 2.45045C3.0961 2.69955 2.62905 3.1666 2.37996 3.7582C2.00631 4.6923 2.09972 6.87188 2.09972 7.86826C2.09972 8.89577 2.00631 11.0753 2.37996 11.9783C2.62905 12.6011 3.0961 13.0681 3.71884 13.3172C4.62181 13.6908 6.80138 13.5974 7.8289 13.5974C8.82528 13.5974 11.0049 13.6908 11.939 13.3172C12.5306 13.0681 13.0287 12.6011 13.2467 11.9783Z" fill="#3F0909"/>
</svg>

<svg xmlns="http://www.w3.org/2000/svg" width="15" height="15" fill="none" viewBox="0 0 15 15"><path fill="#FAEEE0" d="M7.829 4.288c1.962 0 3.58 1.619 3.58 3.58 0 1.993-1.618 3.581-3.58 3.581a3.561 3.561 0 0 1-3.58-3.58 3.581 3.581 0 0 1 3.58-3.581Zm0 5.915c1.277 0 2.304-1.027 2.304-2.335a2.299 2.299 0 0 0-2.304-2.304c-1.308 0-2.335 1.028-2.335 2.304a2.332 2.332 0 0 0 2.335 2.335Zm4.546-6.04a.837.837 0 0 0-.84-.84.837.837 0 0 0-.841.84c0 .467.373.84.84.84.467 0 .84-.373.84-.84Zm2.366.84c.063 1.153.063 4.609 0 5.761-.062 1.12-.311 2.086-1.12 2.927-.81.81-1.807 1.058-2.928 1.12-1.152.063-4.608.063-5.76 0-1.12-.062-2.086-.31-2.927-1.12-.81-.84-1.058-1.806-1.12-2.927-.063-1.152-.063-4.608 0-5.76.062-1.121.31-2.118 1.12-2.927.841-.81 1.806-1.059 2.927-1.121 1.152-.062 4.608-.062 5.76 0 1.121.062 2.118.311 2.927 1.12.81.81 1.059 1.807 1.121 2.928Zm-1.494 6.975c.373-.903.28-3.082.28-4.11 0-.996.093-3.176-.28-4.11-.25-.591-.716-1.09-1.308-1.308-.934-.373-3.114-.28-4.11-.28-1.028 0-3.207-.093-4.11.28-.623.25-1.09.717-1.339 1.308-.374.934-.28 3.114-.28 4.11 0 1.028-.094 3.207.28 4.11a2.36 2.36 0 0 0 1.339 1.34c.903.373 3.082.28 4.11.28.996 0 3.176.093 4.11-.28.592-.25 1.09-.717 1.308-1.34Z"/></svg>
